!!!COM: Palestrina, Giovanni Perluigi da
!!!OPR: Missa Ecce ego Joannes
!!!OTL: Gloria
**kern	**kern	**kern	**kern	**kern	**kern
*Ibass	*Ibarit	*Itenor	*Itenor	*Icalto	*Icant
!Bassus	!Baritone	!Tenor 2	!Tenor 1	!Altus	!Cantus
*clefF4	*clefF4	*clefGv2	*clefGv2	*clefG2	*clefG2
*k[]	*k[]	*k[]	*k[]	*k[]	*k[]
*G:mix	*G:mix	*G:mix	*G:mix	*G:mix	*G:mix
*M4/2	*M4/2	*M4/2	*M4/2	*M4/2	*M4/2
=1	=1	=1	=1	=1	=1
1G	0r	1d	1g	1b	0r
1G	.	1d	1g	1b	.
=2	=2	=2	=2	=2	=2
1C	0r	1e	1g	1.cc	0r
1G	.	1d	1g	.	.
.	.	.	.	2b	.
=3	=3	=3	=3	=3	=3
1.F	0r	2f	1c	1.a	0r
.	.	2F	.	.	.
.	.	4A	1c	.	.
.	.	4B	.	.	.
2E	.	[2c	.	2g	.
=4	=4	=4	=4	=4	=4
2D	0r	2c]	2d	2f	0r
2D	.	2B	2d	2f	.
[1C	.	1c	[1g	1e	.
=5	=5	=5	=5	=5	=5
1C]	1c	2r	1g]	2r	1ee
.	.	2g	.	1cc	.
1r	1G	2.g	1r	.	2dd
.	.	.	.	2b	[2gg
.	.	4f	.	.	.
=6	=6	=6	=6	=6	=6
0r	1.c	4e	0r	2g	4gg]
.	.	4d	.	.	4ff
.	.	2c	.	2.a	4ee
.	.	.	.	.	4dd
.	.	2e	.	.	2cc
.	.	.	.	4g	.
.	2B	2d	.	[2g	[2dd
=7	=7	=7	=7	=7	=7
0r	1A	2e	0r	2g]	4dd]
.	.	.	.	.	4cc
.	.	4d	.	2f#	1cc
.	.	4c	.	.	.
.	[1G	1d	.	1g	.
.	.	.	.	.	2b
=8	=8	=8	=8	=8	=8
1C	0G]	2c	1e	2r	2cc
.	.	2c	.	2g	2ee
1E	.	1B	1e	1g	1gg
=9	=9	=9	=9	=9	=9
1F	1r	1A	1c	1a	1ff
1C	2r	1c	2e	2g	2ee
.	[2c	.	[2g	[2cc	[2ee
=10	=10	=10	=10	=10	=10
0r	2c]	0r	2g]	2cc]	2ee]
.	2G	.	2g	2b	2dd
.	2A	.	1e	2a	1cc
.	2A	.	.	2a	.
=11	=11	=11	=11	=11	=11
1r	1c	1r	2e	1g	2cc
.	.	.	2e	.	2cc
2r	1G	2r	2d	2g	2b
[2C	.	[2c	[2e	[2g	[2ee
=12	=12	=12	=12	=12	=12
2C]	0r	2c]	2e]	2g]	2ee]
2C	.	2c	2e	2g	2ee
1E	.	1B	1e	1g	1gg
=13	=13	=13	=13	=13	=13
1F	1r	1A	1c	1a	1ff
1C	2r	1c	2e	2g	2ee
.	2c	.	2g	2cc	2ee
=14	=14	=14	=14	=14	=14
0r	2c	0r	2g	2cc	2ee
.	2G	.	2g	2b	2dd
.	1A	.	[1e	1a	[1cc
=15	=15	=15	=15	=15	=15
0r	1c	0r	2e]	1g	2cc]
.	.	.	2e	.	2cc
.	1G	.	1d	1g	1b
=16	=16	=16	=16	=16	=16
1.G	2r	2r	1.g	1.b	2r
.	1B	1d	.	.	1dd
2G	2B	2d	2g	2b	2dd
=17	=17	=17	=17	=17	=17
1G	1d	2G	1g	1b	1dd
.	.	4g	.	.	.
.	.	4f	.	.	.
[1C	1c	4e	[1g	[1cc	[1ee
.	.	4d	.	.	.
.	.	4e	.	.	.
.	.	4d	.	.	.
=18	=18	=18	=18	=18	=18
2C]	1G	2c	2g]	2cc]	2ee]
2G	.	2d	2g	2b	2dd
1G	1B	[1d	1g	1b	1dd
=19	=19	=19	=19	=19	=19
0D	1d	2d]	4f	0a	2.ff
.	.	.	4e	.	.
.	.	2.f	4d	.	.
.	.	.	4e	.	4ee
.	1A	.	4f	.	1dd
.	.	4e	4g	.	.
.	.	2d	2f	.	.
=20	=20	=20	=20	=20	=20
0AA	2r	2c#	1e	[0a	2ee
.	1A	1e	.	.	1cc#
.	.	.	1r	.	.
.	2A	2e	.	.	2cc#
=21	=21	=21	=21	=21	=21
1r	2d	2f	2r	1a]	2dd
.	2c#	2e	1A	.	2ee
[1D	2.d	[1f#	.	2r	2.dd
.	.	.	2A	[2a	.
.	4d	.	.	.	4dd
=22	=22	=22	=22	=22	=22
2D]	1A	2f#]	1.d	2a]	0dd
2D	.	2f#	.	2a	.
2G	2r	2g	.	2b	.
2F#	2D	2a	2d	2a	.
=23	=23	=23	=23	=23	=23
2.G	2d	2.g	2B	2.b	2r
.	2d	.	2G	.	2.gg
4G	.	4g	.	4b	.
1C	1c	2e	1g	1cc	.
.	.	.	.	.	4ff
.	.	[2c	.	.	[2ee
=24	=24	=24	=24	=24	=24
2.E	0G	4c]	0g	2r	4ee]
.	.	4B	.	.	4dd
.	.	2e	.	2.g	1cc
4F	.	.	.	.	.
1G	.	1d	.	.	.
.	.	.	.	4f	.
.	.	.	.	2d	2b
=25	=25	=25	=25	=25	=25
0C	2r	2c	2.g	2e	2cc
.	1c	1g	.	1cc	1ee
.	.	.	4f	.	.
.	.	.	1e	.	.
.	2c	2g	.	2cc	2ee
=26	=26	=26	=26	=26	=26
0r	1A	1a	0r	1cc	1ee
.	1c	1g	.	1cc	1ee
=27	=27	=27	=27	=27	=27
0r	0G	1g	0r	0b	2dd
.	.	.	.	.	4g
.	.	.	.	.	4a
.	.	4G	.	.	4b
.	.	4A	.	.	4cc
.	.	4B	.	.	4dd
.	.	4c	.	.	4ee
=28	=28	=28	=28	=28	=28
0r	4D	2d	0r	1.a	2ff
.	4E	.	.	.	.
.	4F	4A	.	.	1ff
.	4G	4B	.	.	.
.	4A	4c	.	.	.
.	4B	4d	.	.	.
.	4c	4e	.	2g	[2ee
.	4d	4f	.	.	.
=29	=29	=29	=29	=29	=29
0r	2e	2g	0r	4cc	4ee]
.	.	.	.	4b	4dd
.	2f	1a	.	4a	1cc
.	.	.	.	4g	.
.	1d	.	.	1f	.
.	.	4g	.	.	2b
.	.	4f	.	.	.
=30	=30	=30	=30	=30	=30
2r	1c	2e	2r	1g	2cc
1c	.	2e	1g	.	1ee
.	1r	2c	.	1r	.
2B	.	2d	2g	.	2dd
=31	=31	=31	=31	=31	=31
1c	0r	1g	1e	0r	1cc
2G	.	2g	1d	.	2b
2G	.	2g	.	.	2b
=32	=32	=32	=32	=32	=32
2A	1r	2.f	1r	1r	2cc
2B	.	.	.	.	2dd
.	.	4f	.	.	.
2c	2r	1e	2r	2r	1ee
[2C	[2c	.	[2e	[2g	.
=33	=33	=33	=33	=33	=33
2C]	2c]	0r	2e]	2g]	0r
2G	2B	.	2d	2g	.
1C	1c	.	1e	1g	.
=34	=34	=34	=34	=34	=34
2G	2B	0r	2d	2g	0r
2E	2G	.	2e	2g	.
2F	2A	.	2c	2f	.
2D	2B	.	2d	2f	.
=35	=35	=35	=35	=35	=35
0C	0c	2r	1g	2e	1r
.	.	2.e	.	2.g	.
.	.	.	1r	.	2r
.	.	4e	.	4g	.
.	.	2e	.	2g	[2cc
=36	=36	=36	=36	=36	=36
0r	0r	0f	1r	0a	4cc]
.	.	.	.	.	4cc
.	.	.	.	.	2cc
.	.	.	2r	.	1dd
.	.	.	[2a	.	.
=37	=37	=37	=37	=37	=37
0r	0r	1e	4a]	1b	0ee
.	.	.	4g#	.	.
.	.	.	2g#	.	.
.	.	2r	1a	[1cc	.
.	.	[2A	.	.	.
=38	=38	=38	=38	=38	=38
0r	0r	4A]	2a	2cc]	1.ee
.	.	4B	.	.	.
.	.	4c	2a	2cc	.
.	.	4d	.	.	.
.	.	2e	2g	2b	.
.	.	2f#	[2a	2a	2dd
=39	=39	=39	=39	=39	=39
0r	0r	2g	4a]	2b	2dd
.	.	.	4g	.	.
.	.	2e	1g	4a	2cc
.	.	.	.	4g	.
.	.	[1d	.	1a	1dd
.	.	.	2f#	.	.
=40	=40	=40	=40	=40	=40
0G	0B	1d]	1g	1b	0dd
.	.	1d	1g	2r	.
.	.	.	.	[2g	.
=41	=41	=41	=41	=41	=41
0C	0c	2.g	2.e	2g]	2.ee
.	.	.	.	2c	.
.	.	4f	4d	.	4ff
.	.	1e	4e	[1cc	1gg
.	.	.	4f	.	.
.	.	.	2g	.	.
=42	=42	=42	=42	=42	=42
0F	0A	1.c	0a	0cc]	0ff
.	.	2d	.	.	.
=43	=43	=43	=43	=43	=43
1C	1c	1e	1g	0cc	0ee
2r	2r	2r	2r	.	.
[2C	[2c	[2e	[2g	.	.
=44	=44	=44	=44	=44	=44
4C]	4c]	4e]	4g]	0r	0r
4C	4c	4e	4g	.	.
2G	2B	2d	2g	.	.
1F	1c	1f	1a	.	.
=45	=45	=45	=45	=45	=45
2C	2c	2e	1g	0r	0r
2.c	2.e	2c	.	.	.
.	.	2g	2e	.	.
4B	4d	.	.	.	.
4A	[2c	[2a	2e	.	.
4G	.	.	.	.	.
=46	=46	=46	=46	=46	=46
2F	2c]	2a]	2f	0r	0r
2G	2B	1g	1e	.	.
1A	1c	.	.	.	.
.	.	2f#	4d	.	.
.	.	.	4c	.	.
=47	=47	=47	=47	=47	=47
1G	2B	2.g	2d	2r	2r
.	2.G	.	2.g	2.b	2.dd
.	.	8f	.	.	.
.	.	8e	.	.	.
1r	.	1d	.	.	.
.	4G	.	4g	4b	4dd
.	2d	.	2f#	2a	2dd
=48	=48	=48	=48	=48	=48
0r	1c	1r	1g	1cc	1ee
.	[1G	2r	1g	1b	1dd
.	.	[2g	.	.	.
=49	=49	=49	=49	=49	=49
0r	1G]	4g]	2r	1b	2.gg
.	.	4f	.	.	.
.	.	4e	1g	.	.
.	.	4d	.	.	4ff
.	1r	2c	.	2cc	2ee
.	.	2d	2f#	[2a	4dd
.	.	.	.	.	4cc
=50	=50	=50	=50	=50	=50
0r	0r	1e	1g	4a]	2b
.	.	.	.	4g	.
.	.	.	.	1g	2cc
.	.	1d	1a	.	1dd
.	.	.	.	2f#	.
=51	=51	=51	=51	=51	=51
2r	2r	1c	2r	2g	1ee
2.C	2.c	.	2.e	2.g	.
.	.	1r	.	.	1r
4C	4c	.	4e	4g	.
2G	2B	.	2d	2g	.
=52	=52	=52	=52	=52	=52
2.F	0c	0r	1f	1.a	0r
4G	.	.	.	.	.
4A	.	.	2.e	.	.
4B	.	.	.	.	.
[2c	.	.	.	4g	.
.	.	.	8d	4f	.
.	.	.	8c	.	.
=53	=53	=53	=53	=53	=53
2c]	1G	1r	1d	1g	1r
2B	.	.	.	.	.
1c	1C	2r	2.e	2g	2r
.	.	[2c	.	[2cc	[2ee
.	.	.	4f	.	.
=54	=54	=54	=54	=54	=54
0r	0r	4c]	1g	4cc]	4ee]
.	.	4c	.	4cc	4ee
.	.	2g	.	2b	2dd
.	.	2.c	2r	1cc	2.ee
.	.	.	[2g	.	.
.	.	4d	.	.	8dd
.	.	.	.	.	8cc
=55	=55	=55	=55	=55	=55
0r	0r	4e	4g]	1g	2b
.	.	4f	4g	.	.
.	.	1g	2c	.	2cc
.	.	.	1d	1r	1a
.	.	2f#	.	.	.
=56	=56	=56	=56	=56	=56
2r	2r	2g	0G	2r	1g
2.C	2.c	2.e	.	2.g	.
.	.	.	.	.	1r
4C	4c	4e	.	4g	.
2G	2B	2d	.	2g	.
=57	=57	=57	=57	=57	=57
1C	2.c	4g	2r	2.e	2r
.	.	4f	.	.	.
.	.	4e	2.c	.	2.ee
.	8B	4d	.	4f	.
.	8A	.	.	.	.
2C	[1G	2c	.	[1g	.
.	.	.	4c	.	4ee
2G	.	2d	2B	.	2dd
=58	=58	=58	=58	=58	=58
2C	0G]	0e	0c	0g]	4gg
.	.	.	.	.	4ff
2C	.	.	.	.	4ee
.	.	.	.	.	4dd
1C	.	.	.	.	1cc
=59	=59	=59	=59	=59	=59
0G	0G	0d	0B	0g	0dd
=60	=60	=60	=60	=60	=60
0C	0r	0c	0e	0g	0cc
=61	=61	=61	=61	=61	=61
1G	0r	1B	1d	1g	1dd
1C	.	2.c	4c	1g	2ee
.	.	.	4d	.	.
.	.	.	4e	.	[2gg
.	.	4d	4f	.	.
=62	=62	=62	=62	=62	=62
1C	0r	2e	2g	2.cc	4gg]
.	.	.	.	.	4ff
.	.	2e	2g	.	4ee
.	.	.	.	4b	4dd
2.F	.	[1f	2.a	4a	4cc
.	.	.	.	4g	4b
.	.	.	.	2f	2a
4E	.	.	4g	.	.
=63	=63	=63	=63	=63	=63
2D	0r	2f]	2f	2a	2dd
2A	.	2c	1e	2a	2ee
1D	.	1d	.	1a	1ff
.	.	.	[2d	.	.
=64	=64	=64	=64	=64	=64
1A	0r	1e	2d]	1a	1ee
.	.	.	2c#	.	.
[1D	.	[1f#	2r	2r	[1dd
.	.	.	[2d	[2a	.
=65	=65	=65	=65	=65	=65
2D]	0r	2f#]	2d]	2a]	2dd]
2D	.	2f#	2d	2a	2dd
1G	.	1g	1d	1b	2dd
.	.	.	.	.	2g
=66	=66	=66	=66	=66	=66
1E	0r	2g	1e	1b	4gg
.	.	.	.	.	4ff
.	.	4g	.	.	4ee
.	.	4f	.	.	4dd
1C	.	4e	1g	1cc	1ee
.	.	4d	.	.	.
.	.	2c	.	.	.
=67	=67	=67	=67	=67	=67
0G	1r	0d	1g	1b	1dd
.	1G	.	2r	2r	2r
.	.	.	2g	2b	2dd
=68	=68	=68	=68	=68	=68
0r	1d	1r	1f#	1a	1dd
.	1G	2r	2.g	[1b	1dd
.	.	2d	.	.	.
.	.	.	8f	.	.
.	.	.	8e	.	.
=69	=69	=69	=69	=69	=69
0r	1G	2.g	1d	1b]	2dd
.	.	.	.	.	2.gg
.	.	4f	.	.	.
.	2.c	4e	2r	1g	.
.	.	4d	.	.	4ff
.	.	2c	2e	.	4ee
.	4B	.	.	.	4dd
=70	=70	=70	=70	=70	=70
0r	2A	1e	2a	2a	2cc
.	2e	.	2g#	2b	2b
.	1A	1e	2a	1cc	1a
.	.	.	2e	.	.
=71	=71	=71	=71	=71	=71
1.E	2B	1e	2r	2b	2g#
.	1B	.	1e	1g#	1ee
.	.	1r	.	.	.
2E	2B	.	2e	2g#	2ee
=72	=72	=72	=72	=72	=72
1A	1c#	2r	1e	1a	1ee
.	.	2.A	.	.	.
[1D	[1d	.	[1f#	[1a	[1dd
.	.	4A	.	.	.
.	.	2A	.	.	.
=73	=73	=73	=73	=73	=73
2D]	2d]	2a	2f#]	2a]	2dd]
2D	2d	2a	2f#	2d	2dd
2G	2B	2g	2g	2d	2dd
2G	2B	2g	2d	2g	2dd
=74	=74	=74	=74	=74	=74
1C	1c	1.e	1.g	4g	1ee
.	.	.	.	4f	.
.	.	.	.	4e	.
.	.	.	.	4c	.
1c	1C	.	.	2g	2ee
.	.	2e	2c	2g	[2cc
=75	=75	=75	=75	=75	=75
0G	2r	0d	4d	0g	2cc]
.	.	.	4G	.	.
.	2.G	.	2.g	.	4b
.	.	.	.	.	4a
.	.	.	.	.	1b
.	4A	.	4f	.	.
.	2B	.	2d	.	.
=76	=76	=76	=76	=76	=76
1C	1G	1c	2e	2g	0cc
.	.	.	2g	2e	.
1r	1r	1r	1f	1a	.
=77	=77	=77	=77	=77	=77
2r	1c	2r	2e	2g	2r
2C	.	2g	2e	2cc	2ee
1F	1A	1f	1a	1cc	1ff
=78	=78	=78	=78	=78	=78
1C	1c	1e	1g	1cc	1gg
1r	2e	2g	1r	2cc	2gg
.	[2f	[2a	.	[2cc	[2ff
=79	=79	=79	=79	=79	=79
0r	4f]	4a]	1r	4cc]	4ff]
.	4f	4a	.	4cc	4ff
.	2c	2g	.	2cc	2ee
.	1d	1f#	2r	1a	1dd
.	.	.	2d	.	.
=80	=80	=80	=80	=80	=80
2r	1G	2g	2d	1b	2dd
1G	.	2d	2.g	.	1b
.	1r	2d	.	2r	.
.	.	.	4f	.	.
2G	.	4g	4e	2g	2b
.	.	4f	4d	.	.
=81	=81	=81	=81	=81	=81
2.c	0r	4e	1.e	2g	1cc
.	.	4d	.	.	.
.	.	2c	.	2.cc	.
4B	.	.	.	.	.
4A	.	2c	.	.	2ee
4G	.	.	.	4b	.
4F	.	[2d	2A	4a	[2ff
4E	.	.	.	4g	.
=82	=82	=82	=82	=82	=82
2D	0r	4d]	1A	2f	4ff]
.	.	4c	.	.	4ee
2F	.	2A	.	1a	4cc
.	.	.	.	.	4dd
1E	.	1B	1e	.	1ee
.	.	.	.	2g#	.
=83	=83	=83	=83	=83	=83
1A	2r	2A	1.c#	2a	2ee
.	1A	1e	.	1a	1ee
1r	.	.	.	.	.
.	2D	2f	2d	2a	2dd
=84	=84	=84	=84	=84	=84
0r	2A	2e	2e	2a	2cc#
.	2d	2d	2f	2a	2dd
.	2c	2g	2e	2cc	2ee
.	2F	2a	2c	2cc	2ff
=85	=85	=85	=85	=85	=85
0r	0c	2.g	2.e	0cc	0ee
.	.	4f	4f	.	.
.	.	4e	1g	.	.
.	.	4d	.	.	.
.	.	2c	.	.	.
=86	=86	=86	=86	=86	=86
2r	2G	1d	2g	1b	1dd
1G	1B	.	2d	.	.
.	.	1r	1e	2r	1r
[2A	[2c	.	.	2a	.
=87	=87	=87	=87	=87	=87
2A]	2c]	0r	2A	2a	0r
2D	2d	.	2.f	2a	.
2.A	2.c	.	.	[1a	.
.	.	.	4e	.	.
.	.	.	[2e	.	.
4G	4B	.	.	.	.
=88	=88	=88	=88	=88	=88
2F	2A	1r	2e]	2a]	0r
2F	2A	.	2d	2a	.
1E	1B	2r	1e	2g#	.
.	.	[2g#	.	[2b	.
=89	=89	=89	=89	=89	=89
0r	0r	2g#]	2r	2b]	2r
.	.	1a	2A	1cc	1ee
.	.	.	1a	.	.
.	.	2d	.	2a	[2ff
=90	=90	=90	=90	=90	=90
0r	0r	1a	1A	1cc	2ff]
.	.	.	.	.	2ee
.	.	2a	2r	2cc	2ff
.	.	2g	2e	2b	[2ee
=91	=91	=91	=91	=91	=91
0r	0r	1f	2a	2cc	2ee]
.	.	.	2a	4b	2dd
.	.	.	.	4a	.
.	.	1e	1g#	1b	1ee
=92	=92	=92	=92	=92	=92
0A	0c#	1r	0a	0e	0ee
.	.	[1A	.	.	.
=93	=93	=93	=93	=93	=93
0D	1d	1A]	0f#	0a	1.dd
.	[1d	1A	.	.	.
.	.	.	.	.	2cc
=94	=94	=94	=94	=94	=94
0G	2d]	2B	1g	0d	2b
.	2c	2c	.	.	2a
.	1B	1d	2.g	.	2g
.	.	.	.	.	[2gg
.	.	.	4f	.	.
=95	=95	=95	=95	=95	=95
0C	1c	0e	4e	0g	4gg]
.	.	.	4d	.	4ff
.	.	.	4c	.	4ee
.	.	.	4B	.	4dd
.	[1G	.	1c	.	1cc
=96	=96	=96	=96	=96	=96
1G	2G]	1.d	2.B	1.g	0dd
.	2d	.	.	.	.
.	.	.	4c	.	.
1G	2B	.	1d	.	.
.	2d	2g	.	2b	.
=97	=97	=97	=97	=97	=97
2E	2.e	2g	0r	2cc	0r
2G	.	2g	.	1b	.
.	4d	.	.	.	.
2.A	2c	2.e	.	.	.
.	4B	.	.	[2a	.
4A	4A	4e	.	.	.
=98	=98	=98	=98	=98	=98
1E	2B	1e	1r	2a]	1b
.	2B	.	.	2g#	.
1AA	1A	2r	2r	1a	2.cc#
.	.	2e	2A	.	.
.	.	.	.	.	4cc#
=99	=99	=99	=99	=99	=99
0r	0r	2.f#	2.d	1a	2dd
.	.	.	.	.	2a
.	.	4f#	4d	.	.
.	.	1g	2G	2.b	2.dd
.	.	.	[2g	.	.
.	.	.	.	4b	4dd
=100	=100	=100	=100	=100	=100
0r	0r	2.e	4g]	2b	2g
.	.	.	4f	.	.
.	.	.	4e	4g	2.gg
.	.	4f	4d	4f	.
.	.	1g	[1c	4e	.
.	.	.	.	4d	4ff
.	.	.	.	4c	4ee
.	.	.	.	4d	4dd
=101	=101	=101	=101	=101	=101
0r	0r	1g	2c]	4e	2cc
.	.	.	.	4f	.
.	.	.	2G	2g	2b
.	.	1r	2d	2f#	2a
.	.	.	2e	2g	2g
=102	=102	=102	=102	=102	=102
1D	2r	1r	1.d	2g	1a
.	2A	.	.	2f#	.
2.G	2.B	1d	.	2g	1g
.	.	.	2G	2d	.
4G	4B	.	.	.	.
=103	=103	=103	=103	=103	=103
2C	1c	2.e	0r	2.g	0r
2.c	.	.	.	.	.
.	.	4e	.	4g	.
.	2r	1e	.	2c	.
4B	.	.	.	.	.
4A	2c	.	.	[2cc	.
4G	.	.	.	.	.
=104	=104	=104	=104	=104	=104
1.F	2A	1.a	0r	4cc]	0r
.	.	.	.	4b	.
.	4F	.	.	4a	.
.	4G	.	.	4g	.
.	4A	.	.	2f	.
.	4B	.	.	.	.
2C	2c	2g	.	2e	.
=105	=105	=105	=105	=105	=105
2G	2B	2g	1r	2d	1r
2A	1c	2f#	.	2c	.
1G	.	1g	2r	1d	2r
.	2B	.	[2G	.	2dd
=106	=106	=106	=106	=106	=106
2C	1c	2g	2G]	2c	2.ee
2C	.	2e	2.c	2g	.
.	.	.	.	.	4ee
2.F	1A	[1f	.	2.a	2cc
.	.	.	4c	.	.
.	.	.	[2A	.	[2ff
4F	.	.	.	4a	.
=107	=107	=107	=107	=107	=107
1D	2.d	2f]	2A]	1a	2ff]
.	.	2f	2.d	.	1dd
.	4d	.	.	.	.
2.G	1B	1d	.	[1b	.
.	.	.	4c	.	.
.	.	.	4B	.	[2gg
4F	.	.	4A	.	.
=108	=108	=108	=108	=108	=108
4E	2B	2.g	1G	2b]	4gg]
4D	.	.	.	.	4ff
1C	2c	.	.	2e	4ee
.	.	4f	.	.	4dd
.	2.G	4e	1c	[1g	1cc
.	.	4d	.	.	.
2C	.	2e	.	.	.
.	4A	.	.	.	.
=109	=109	=109	=109	=109	=109
1G	4B	1d	1B	1g]	0dd
.	4c	.	.	.	.
.	1d	.	.	.	.
1G	.	2B	2G	1g	.
.	2B	2G	[2g	.	.
=110	=110	=110	=110	=110	=110
0D	0A	0d	2g]	0a	0dd
.	.	.	4f#	.	.
.	.	.	4e	.	.
.	.	.	1f#	.	.
=111	=111	=111	=111	=111	=111
0G	0G	0d	0g	0b	0dd
==	==	==	==	==	==
*-	*-	*-	*-	*-	*-
!!!CDT: 1525/^1526/-1594/2/2
!!!OCY: Italia
!!!AGN: Mass (Parody)
!!!AST: renaissance, vocal
!!!ASW: Motet (Unidentified)
!!!PWK: Masses, Book 12
!!!RNB: Cadence finals: D
!!!YOR: Le Opere Complete, v. 29, p. 197
!!!YOO: Rome, Italy: Fratelli Scalera
!!!END: 1992//
!!!EED: John Miller
!!!YEC: Copyright 2000, John Miller
!!!YEN: United States of America
!!!YEM: Rights to all derivative electronic formats reserved.
!!!YEM: Refer to licensing agreement for further details.
!!!YEM: This file must be accompanied by the licensing agreement.
!!!YEM: A copy of the licensing agreement may be found at http://www.music-cog.ohio-state.edu/HumdrumDatabases/Palestrina/license.txt
!!!EMD: converted to Humdrum by Bret Aarden
